packages/foundations/assets/icons/functional/images/human/clothes_hanger_16.svg

<svg width="16" height="16" viewBox="0 0 16 16" fill="none" xmlns="http://www.w3.org/2000/svg">
<g clip-path="url(#clip0_185_1131)">
<path fill-rule="evenodd" clip-rule="evenodd" d="M7.99641 2.8C9.32375 2.8 10.3998 3.87603 10.3998 5.20337C10.3998 6.16673 9.88356 6.80061 8.94125 7.36078C8.89141 7.39041 8.82492 7.45447 8.80542 7.58857L13.2404 9.51456C14.2136 9.94033 14.6574 11.0744 14.2316 12.0476C13.9445 12.7039 13.3186 13.1425 12.6119 13.1948L3.53004 13.2C2.4678 13.2 1.60669 12.3389 1.60669 11.2767C1.60669 10.5603 2.00427 9.90759 2.63081 9.57643C5.67749 8.25119 7.20082 7.58647 7.20082 7.58647C7.21062 7.31219 7.26077 7.06039 7.40126 6.77001C7.55543 6.45135 7.7956 6.18047 8.12366 5.98545C8.63171 5.68343 8.79978 5.47706 8.79978 5.20337C8.79978 4.75968 8.4401 4.4 7.99641 4.4C7.6544 4.4 7.26927 4.6551 7.17195 5.01167C7.05644 5.43813 6.61709 5.69021 6.19063 5.5747C5.76417 5.45919 5.51209 5.01984 5.6276 4.59338C5.90876 3.55532 6.90301 2.8 7.99641 2.8ZM7.68314 9.11311L3.40043 10.9804C3.28274 11.0319 3.20669 11.1482 3.20669 11.2767C3.20669 11.4329 3.29979 11.5704 3.51047 11.6H12.4695C12.598 11.6 12.7143 11.524 12.7658 11.4063C12.8284 11.2631 12.7791 11.0992 12.6562 11.0126L8.37658 9.13653C8.22736 9.07418 8.10064 9.04301 7.99641 9.04301C7.90307 9.04301 7.79865 9.06637 7.68314 9.11311Z" fill="#1A1C1F"/>
</g>
<defs>
<clipPath id="clip0_185_1131">
<rect width="16" height="16" fill="white"/>
</clipPath>
</defs>
</svg>

<svg xmlns="http://www.w3.org/2000/svg" width="16" height="16" fill="none"><g clip-path="url(#a)"><path fill="#1A1C1F" fill-rule="evenodd" d="M7.996 2.8A2.403 2.403 0 0 1 10.4 5.203c0 .964-.516 1.598-1.459 2.158-.05.03-.116.093-.136.228l4.435 1.926a1.923 1.923 0 0 1-.628 3.68L3.53 13.2a1.923 1.923 0 0 1-.9-3.624Q7.2 7.587 7.2 7.586c.01-.274.06-.526.201-.816a1.83 1.83 0 0 1 .723-.785c.508-.302.676-.508.676-.782a.803.803 0 0 0-.804-.803c-.342 0-.727.255-.824.612a.8.8 0 1 1-1.544-.419C5.908 3.555 6.903 2.8 7.996 2.8m-.313 6.313L3.4 10.98a.32.32 0 0 0-.193.297c0 .156.093.293.303.323h8.96a.323.323 0 0 0 .186-.587l-4.28-1.876a1 1 0 0 0-.38-.094.9.9 0 0 0-.313.07" clip-rule="evenodd"/></g><defs><clipPath id="a"><path fill="#fff" d="M0 0h16v16H0z"/></clipPath></defs></svg>
